symbols/web/medical_services/materialsymbolsrounded/medical_services_wght700_40px.svg

<svg xmlns="http://www.w3.org/2000/svg" height="40" width="40"><path d="M17.833 25.5v2.833q0 .917.625 1.542T20 30.5q.917 0 1.542-.625t.625-1.542V25.5H25q.917 0 1.542-.625t.625-1.542q0-.916-.625-1.541-.625-.625-1.542-.625h-2.833v-2.834q0-.916-.625-1.541-.625-.625-1.542-.625t-1.542.625q-.625.625-.625 1.541v2.834H15q-.917 0-1.542.625t-.625 1.541q0 .917.625 1.542T15 25.5ZM6.542 37.958q-1.834 0-3.104-1.27-1.271-1.271-1.271-3.105V12.917q0-1.792 1.271-3.063 1.27-1.271 3.104-1.271h6v-3q0-1.791 1.27-3.083 1.271-1.292 3.105-1.292h6.166q1.834 0 3.105 1.292 1.27 1.292 1.27 3.083v3h6q1.834 0 3.125 1.271 1.292 1.271 1.292 3.063v20.666q0 1.834-1.292 3.105-1.291 1.27-3.125 1.27ZM16.917 8.583h6.166v-3h-6.166Zm-10.375 25h26.916V12.917H6.542v20.666Zm0 0V12.917v20.666Z"/></svg>

<svg xmlns="http://www.w3.org/2000/svg" height="40" width="40"><path d="M17.833 25.5V28.333Q17.833 29.25 18.458 29.875Q19.083 30.5 20 30.5Q20.917 30.5 21.542 29.875Q22.167 29.25 22.167 28.333V25.5H25Q25.917 25.5 26.542 24.875Q27.167 24.25 27.167 23.333Q27.167 22.417 26.542 21.792Q25.917 21.167 25 21.167H22.167V18.333Q22.167 17.417 21.542 16.792Q20.917 16.167 20 16.167Q19.083 16.167 18.458 16.792Q17.833 17.417 17.833 18.333V21.167H15Q14.083 21.167 13.458 21.792Q12.833 22.417 12.833 23.333Q12.833 24.25 13.458 24.875Q14.083 25.5 15 25.5ZM6.542 37.958Q4.708 37.958 3.438 36.688Q2.167 35.417 2.167 33.583V12.917Q2.167 11.125 3.438 9.854Q4.708 8.583 6.542 8.583H12.542V5.583Q12.542 3.792 13.812 2.5Q15.083 1.208 16.917 1.208H23.083Q24.917 1.208 26.188 2.5Q27.458 3.792 27.458 5.583V8.583H33.458Q35.292 8.583 36.583 9.854Q37.875 11.125 37.875 12.917V33.583Q37.875 35.417 36.583 36.688Q35.292 37.958 33.458 37.958ZM16.917 8.583H23.083V5.583Q23.083 5.583 23.083 5.583Q23.083 5.583 23.083 5.583H16.917Q16.917 5.583 16.917 5.583Q16.917 5.583 16.917 5.583ZM6.542 33.583H33.458Q33.458 33.583 33.458 33.583Q33.458 33.583 33.458 33.583V12.917Q33.458 12.917 33.458 12.917Q33.458 12.917 33.458 12.917H6.542Q6.542 12.917 6.542 12.917Q6.542 12.917 6.542 12.917V33.583Q6.542 33.583 6.542 33.583Q6.542 33.583 6.542 33.583ZM6.542 33.583Q6.542 33.583 6.542 33.583Q6.542 33.583 6.542 33.583V12.917Q6.542 12.917 6.542 12.917Q6.542 12.917 6.542 12.917Q6.542 12.917 6.542 12.917Q6.542 12.917 6.542 12.917V33.583Q6.542 33.583 6.542 33.583Q6.542 33.583 6.542 33.583Z"/></svg>
